X:0663
T:Lady Ann Hope's Strathspe.
N:Lady Ann Hope's Strathspey [in index]
M:C
L:1/8
Q:1/4=120
I: :| ||
Z:Jack Campin * www.campin.me.uk * 2009
K:G
c| B/c/d/B/ G<B E<GD<G|F>A BA/G/ FDDc   |B/c/d/B/ GB EGDg  |e/f/g/e/ f/g/a/f/ gGG:|
d|Tg>bgd       Tg>bgd |eaTa>g    fdde/f/|gbdB        cedg  |egfa              gGG
d|Tg>bgd       Tg>bgd |eaTa>g    fddg/a/|bgaf        g>ed>c|BgAf              gGG|]

